X: 539
T:Kingussie Waltz, The
C:Bert Shorthouse
S:On Tour with Jimmy Shand (1953)
Z:https://nigelgatherer.com/
M:3/4
L:1/8
K:D
A2| D3 F A2 | d3 c d2 | e3 d B2 | A d3 
d2 | D3 F A2 | B2 A2 F2 | F3 E D2 | E4 
A2 | D3 F A2 | d3 c d2 | e3 d B2 | A d3 
B2 | A d3 F2 | A3 G E2 | E D3 D2 | D4 
A2 | d3 c d2 | f2 e2 d2 | e3 d B2 | A d3 
B2 | A2 d2 f2 | b2 a2 f2 | f3 e d2 | e4 
fg | a3 ^g a2 | f2 e2 d2 | e3 d B2 | A d3 
B2 | A d3 F2 | A3 G E2 | E D3 D2 | D4 |]

